!!!!SEGMENT: pl-stab--st-a--007_anonim--po-upadku.krn
!!!cenid: 15xx:362
!!!COM: Anonim
!!!COM-rismid: pe30004985
!!!CDT:
!!!CNT:
!!!OTL: Po upadku
!!!PDT: 1586
!!!AGN: Sacred
!!!SMS-siglum: PL-STAb
!!!SMS-shelfmark: St A
!!!SMS-shelfwork: 007 W
!!!NIFC-rismid:
!!!URL-scan: http://staniatki.studiokropka.pl/mbp/#/item/429
!!!ONB-nifc:
!!!COM: Anonim
!!!CDT:
!!!OTL@@POL: Po upadku człowieka grzesznego
!!!TXO: Polish
!!!ODT:
!!!ARL: Opactwo św. Wojciecha, Staniątki
!!!voices: 1
!!!AIN: 1 vox
!!!key:
**kern	**text	**text	**text	**text	**text	**text	**text	**text	**text	**text	**text
*Ivox	*	*	*	*	*	*	*	*	*	*	*
*I"[Canto]	*	*	*	*	*	*	*	*	*	*	*
*clefC1	*	*	*	*	*	*	*	*	*	*	*
*k[b-]	*	*	*	*	*	*	*	*	*	*	*
*d:	*	*	*	*	*	*	*	*	*	*	*
*met(c|)	*	*	*	*	*	*	*	*	*	*	*
=1-	=1-	=1-	=1-	=1-	=1-	=1-	=1-	=1-	=1-	=1-	=1-
2a\	Po	O	Jusz	Idz	Pan-	Ar-	Na-	A	Pan-	Acz	Jak
2a\	u-	pan-	Bo-	do	-na	-cha-	-la-	bądz-	-na	czi	prę-
2a\	-pad-	-no	-gu	pan-	na	-niol	-zlaś	-że	acz-	ia	-tko
2b-\	-ku	grÿ-	czeszcz	-nÿ	ten	wi-	ła-	też	-kol-	zaw-	tÿ
=2-	=2-	=2	=2	=2	=2-	=2-	=2-	=2-	=2-	=2-	=2-
2a\	czło-	-żeś	i	i-	czas	-dząc	-skę	i-	-wiek	-sze	slo-
2a\	-wie-	ta-	chwa-	-miÿę	zol-	pan-	u	-mię	bę-	pra-	-wa
2g\	-ka	-ko-	-lę	jeÿ	-tarz	-nę	pa-	ie-	-dą	-gnę-	wÿ-
1f/	grze-	-weÿ	da-	Ma-	czi-	zdu-	-na	-go	zdu-	-la	-mo-
=3-	=3-	=3-	=3-	=3-	=3-	=3-	=3-	=3-	=3-	=3-	=3-
.	.	.	.	.	.	.	.	.	.	.	.
2e/	-szne-	mo-	-waÿ-	-ri-	-ta-	-mia-	swe-	Je-	-mia-	te-	-wi-
1f/	-go	-czy	-mÿ	-a	-la	-łą	-go	-sus	-la	-go	-la
=4-	=4-	=4-	=4-	=4-	=4-	=4-	=4-	=4-	=4-	=4-	=4-
!!linebreak:original
2a\	u-	do	a	spraw	gdÿ	ÿął	tÿ	ten	ale	bÿch	wnet
2f/	-za-	czie-	pan-	po-	to	ÿą	się	bę-	ba-	mo-	pa-
2g/	-lil	-bÿe	-nÿ	-sel-	poz-	na-	masz	-dzie	-czącz	-gla	-na
2a\	się	wo-	ku	-stwo	-dro-	-ma-	stacz	zba-	isz	bÿcz	w ziÿ-
=5-	=5-	=5-	=5-	=5-	=5-	=5-	=5-	=5-	=5-	=5-	=5-
2b-\	pan	-lą-	po-	Zdro-	-wie-	-wiacz	ma-	-wi-	to	slusz-	-wot
2a\	stwo-	-miÿ	-mo-	-waś	-nie	ła-	-tką	-ciel	Bos-	-ka	z nÿe-
2dd\	-rze-	we	-czÿ	ła-	u-	-go-	sÿ-	wczor-	-ka	ma-	-ba
1cc\	-nia	dnÿe	wzÿ-	-ski	-słÿ-	-dną	-na	-nas-	wo-	-tki	zwa-
=6-	=6-	=6--	=6-	=6-	=6-	=6-	=6-	=6-	=6-	=6-	=6-
.	.	.	.	.	.	.	.	.	.	.	.
2b-\	swe-	w no-	-waÿ-	peł-	-sza-	mo-	ie-	-tkich?	.	je-	-bi-
1cc\	-go	-czÿ	-mÿ	-na	-la	-wą	-go	dusz	-la	-go	-la
=7-	=7-	=7-	=7-	=7-	=7-	=7-	=7-	=7-	=7-	=7-	=7-
!!LO:LB:g=original
2a\	ze-	ra-	Al-	pan	na	pan-	tacz	ra-	rze-	stąn-	a
2a\	-slal	-czisz	-le-	iest	slo-	-no	iest	-czisz	-kla	-ze	tam
2a\	na	nam	-lu-	sto-	-wa	nie-	wo-	mie-	luz-	mÿ	Bo-
2b-\	swÿat	bÿcz	-ja	-bą	sÿę	-lę-	-la	-la	-ka	się	-gu
=8-	=8-	=8-	=8-	=8-	=8-	=8-	=8-	=8-	=8-	=8-	=8-
2a\	Ar-	za-	we-	niÿe-	A-	-kaÿ	Bo-	pan-	pan-	po-	czeszcz
2a\	-cha-	-wszeÿ	-so-	-bądz-	-niel-	sÿę	-ga	-no	-ska	-dlug	i
2g/	-ni-	na	-ło	-ze	-skie	pan	wszech-	przi-	je-	slo-	chwa-
1f/	-la	po-	spie-	tro-	zdu-	czi?	-mo-	-zwo-	-stem-	-wa	-lę
=9-	=9-	=9-	=9-	=9-	=9-	=9-	=9-	=9-	=9-	=9-	=9-
.	.	.	.	.	.	.	.	.	.	.	.
2e/	czne-	-mo-	-waÿ-	-skli-	-miÿa-	sto-	-cne-	-licz	-czi	twe-	da-
0f/	-go	-czÿ	-mÿ	-wa	-la	-bą	-go	iusz	ÿa	-go	-la
==	==	==	==	==	==	==	==	==	==	==	==
*-	*-	*-	*-	*-	*-	*-	*-	*-	*-	*-	*-
!!!EFL:
!!!YEM: Creative Commons CC/BY/NC/SA 4.0
!!!ENC: Marcin Konik
!!!END: 2015-03-14
!!!EED: Marcin Konik
!!!ENC: Leszek Kubiak
!!!END: 202-30-01
!!!ONB: Encoded in vim by Marcin Konik
!!!CharacterEncoding: utf-8
!!!RDF**kern: l=long note in original notation
!!!RDF**kern: i=editorial accidental
!!muse2ps: z14jc180F
!!title: @{OTL}, @{GTL}: @{pag}, ed. @{ENC}
!!!pag: pp. 14v-15r
